X: 8
T: The Home Ruler
R: hornpipe
M: 4/4
L: 1/8
K: Dmaj
M:6/8
DFA DFA | dfe dAF | BAB dAF | EDE GFE |
DFA DFA | dfe dAF | AFA dAF | EFE D3:|
Adc ddf | afb afd | efe dBA | fdf edB |
Adc ddf | afb afd | efe dBA | FEA D3 :|


Tune 310	Setting 23386

